X: 9
T: The Star Of Munster
R: reel
M: 4/4
L: 1/8
K: Gmaj
|BAGB AGFD | GFGD =FDCA, |G,2 GF GABc | d2ge =fdcA |
BAGB AGFD | GFGD =FDCA, |G,2 GF GABc | (3dcB cA BGG2 |
[B2G2][B2G2][A2F2][A2F2] | GBAG =FDCA, |G,2 GF GABc | d2ge =fdcA |
BccB BAGF | GBAG =FDCA, |G,2 GF GABc | (3dcB cA BGG2 |
|:dggf gd (3ddd | gdad gdde | =f2ge fcce | =fgag fdcA |
fggf gd (3ddd | gdad gdde | =fefa gfga | bgag =fdcA :|


Tune 197	Setting 27920

